app/img/union.svg

<svg width="710" height="716" fill="none" xmlns="http://www.w3.org/2000/svg"><g opacity=".81" fill-rule="evenodd" clip-rule="evenodd" fill="#80FF9F" fill-opacity=".3"><path d="M284.033 340.886c-9.351 39.522 14.839 79.205 54.029 88.635 39.191 9.43 78.542-14.964 87.893-54.486 9.351-39.522-14.839-79.205-54.03-88.635-39.19-9.43-78.541 14.964-87.892 54.486Zm55.384 82.912c-36.056-8.676-58.312-45.186-49.708-81.546 8.603-36.361 44.806-58.804 80.862-50.129 36.056 8.676 58.311 45.186 49.708 81.546-8.603 36.361-44.806 58.804-80.862 50.129Z"/><path d="M268.605 358.001c0-48.118 38.68-87.126 86.395-87.126 47.715 0 86.396 39.008 86.396 87.126S402.715 445.126 355 445.126s-86.395-39.007-86.395-87.125ZM355 276.583c-44.589 0-80.736 36.452-80.736 81.418 0 44.966 36.147 81.418 80.736 81.418 44.589 0 80.736-36.452 80.736-81.418 0-44.966-36.147-81.418-80.736-81.418Z"/><path d="M355 257.329c-55.134 0-99.828 45.072-99.828 100.672 0 55.6 44.694 100.672 99.828 100.672s99.828-45.072 99.828-100.672c0-55.6-44.694-100.672-99.828-100.672Zm-94.363 100.672c0-52.556 42.248-95.16 94.363-95.16s94.363 42.604 94.363 95.16-42.248 95.16-94.363 95.16-94.363-42.604-94.363-95.16Z"/><path d="M241.753 358c0-63.073 50.702-114.204 113.247-114.204S468.247 294.927 468.247 358c0 63.074-50.702 114.205-113.247 114.205S241.753 421.074 241.753 358ZM355 249.131c-59.623 0-107.957 48.742-107.957 108.869S295.377 466.87 355 466.87c59.623 0 107.957-48.743 107.957-108.87S414.623 249.131 355 249.131Z"/><path d="M355 230.24c-69.969 0-126.69 57.201-126.69 127.761s56.721 127.76 126.69 127.76 126.69-57.2 126.69-127.76S424.969 230.24 355 230.24ZM233.425 358.001c0-67.711 54.431-122.602 121.575-122.602s121.575 54.891 121.575 122.602c0 67.711-54.431 122.602-121.575 122.602s-121.575-54.891-121.575-122.602Z"/><path d="M214.891 358c0-78.034 62.729-141.293 140.109-141.293 77.38 0 140.109 63.259 140.109 141.293S432.38 499.293 355 499.293c-77.38 0-140.109-63.259-140.109-141.293ZM355 221.689c-74.652 0-135.169 61.028-135.169 136.311 0 75.282 60.517 136.311 135.169 136.311 74.652 0 135.169-61.029 135.169-136.311 0-75.283-60.517-136.311-135.169-136.311Z"/><path d="M355 203.161c-84.799 0-153.542 69.324-153.542 154.839 0 85.516 68.743 154.84 153.542 154.84S508.542 443.516 508.542 358c0-85.515-68.743-154.839-153.542-154.839ZM206.204 358c0-82.872 66.618-150.053 148.796-150.053S503.796 275.128 503.796 358c0 82.873-66.618 150.054-148.796 150.054S206.204 440.873 206.204 358Z"/><path d="M188.016 358.001c0-93.002 74.761-168.395 166.984-168.395 92.223 0 166.984 75.393 166.984 168.395 0 93.002-74.761 168.396-166.984 168.396-92.223 0-166.984-75.394-166.984-168.396ZM355 194.215c-89.699 0-162.414 73.33-162.414 163.786 0 90.457 72.715 163.786 162.414 163.786 89.699 0 162.414-73.329 162.414-163.786 0-90.456-72.715-163.786-162.414-163.786Z"/><path d="M355 176.072c-99.634 0-180.404 81.452-180.404 181.928S255.366 539.928 355 539.928 535.403 458.476 535.403 358 454.634 176.072 355 176.072ZM178.992 358c0-98.028 78.801-177.495 176.008-177.495 97.206 0 176.008 79.467 176.008 177.495S452.206 535.495 355 535.495c-97.207 0-176.008-79.467-176.008-177.495Z"/><path d="M346.603 552.169c-107.058-4.318-190.374-95.34-186.092-203.303 4.282-107.963 94.541-191.983 201.6-187.665 107.058 4.319 190.374 95.341 186.092 203.304-4.283 107.962-94.542 191.983-201.6 187.664ZM164.731 349.036c-4.189 105.612 77.314 194.653 182.041 198.877 104.727 4.225 193.021-77.966 197.21-183.579 4.189-105.612-77.313-194.652-182.04-198.877-104.727-4.224-193.022 77.967-197.211 183.579Z"/><path d="M355 148.993c-114.464 0-207.255 93.576-207.255 209.007 0 115.431 92.791 209.007 207.255 209.007S562.255 473.431 562.255 358c0-115.431-92.791-209.007-207.255-209.007ZM151.771 358c0-113.189 90.989-204.947 203.229-204.947 112.24 0 203.229 91.758 203.229 204.947 0 113.189-90.989 204.947-203.229 204.947-112.24 0-203.229-91.758-203.229-204.947Z"/><path d="M134.302 358c0-122.918 98.81-222.562 220.698-222.562S575.698 235.082 575.698 358 476.888 580.563 355 580.563 134.302 480.918 134.302 358ZM355 139.321c-119.761 0-216.847 97.906-216.847 218.679 0 120.774 97.086 218.68 216.847 218.68 119.761 0 216.847-97.906 216.847-218.68 0-120.773-97.086-218.679-216.847-218.679Z"/><path d="M355 121.882c-129.312 0-234.14 105.714-234.14 236.119S225.688 594.12 355 594.12c129.312 0 234.14-105.714 234.14-236.119S484.312 121.882 355 121.882ZM124.536 358.001c0-128.358 103.182-232.412 230.464-232.412s230.464 104.054 230.464 232.412S482.282 590.413 355 590.413 124.536 486.359 124.536 358.001Z"/><path d="M107.451 358c0-137.873 110.831-249.641 247.549-249.641 136.718 0 247.55 111.768 247.55 249.641 0 137.874-110.832 249.642-247.55 249.642-136.718 0-247.549-111.768-247.549-249.642ZM355 111.87c-134.795 0-244.068 110.196-244.068 246.13 0 135.935 109.273 246.131 244.068 246.131 134.795 0 244.068-110.196 244.068-246.131 0-135.934-109.273-246.13-244.068-246.13Z"/><path d="M355 94.803C210.858 94.803 94.008 212.64 94.008 358c0 145.36 116.85 263.197 260.992 263.197 144.142 0 260.992-117.837 260.992-263.197S499.142 94.803 355 94.803ZM97.314 358c0-143.519 115.37-259.864 257.686-259.864 142.316 0 257.686 116.345 257.686 259.864 0 143.518-115.37 259.863-257.686 259.863-142.316 0-257.686-116.345-257.686-259.863Z"/><path d="M80.589 358C80.589 205.166 203.447 81.27 355 81.27S629.411 205.166 629.411 358 506.553 634.73 355 634.73 80.589 510.834 80.589 358ZM355 84.428C205.176 84.428 83.72 206.91 83.72 358S205.176 631.572 355 631.572c149.824 0 271.28-122.482 271.28-273.572S504.824 84.428 355 84.428Z"/><path d="M355 67.714c-158.977 0-287.854 129.966-287.854 290.287 0 160.32 128.877 290.286 287.854 290.286 158.977 0 287.854-129.966 287.854-290.286C642.854 197.68 513.977 67.714 355 67.714ZM70.103 358.001C70.103 199.326 197.656 70.696 355 70.696S639.897 199.325 639.897 358c0 158.674-127.553 287.304-284.897 287.304S70.103 516.675 70.103 358.001Z"/><path d="M53.713 358.001C53.713 190.199 188.604 54.168 355 54.168S656.287 190.2 656.287 358.001c0 167.802-134.891 303.833-301.287 303.833S53.713 525.803 53.713 358.001ZM355 56.953c-164.871 0-298.525 134.784-298.525 301.048S190.13 659.048 355 659.048c164.871 0 298.525-134.783 298.525-301.047 0-166.264-133.654-301.048-298.525-301.048Z"/><path d="M355 40.635C181.193 40.635 40.295 182.724 40.295 358S181.193 675.365 355 675.365 669.706 533.276 669.706 358 528.807 40.635 355 40.635ZM42.881 358C42.881 184.165 182.622 43.244 355 43.244c172.379 0 312.119 140.921 312.119 314.756 0 173.835-139.74 314.757-312.119 314.757-172.378 0-312.119-140.922-312.119-314.757Z"/><path d="M26.852 358.001C26.852 175.238 173.769 27.08 355 27.08c181.231 0 328.148 148.158 328.148 330.921S536.231 688.922 355 688.922c-181.231 0-328.148-148.158-328.148-330.921ZM355 29.511c-179.899 0-325.737 147.07-325.737 328.49C29.263 539.42 175.101 686.49 355 686.49c179.899 0 325.736-147.07 325.736-328.489 0-181.42-145.837-328.49-325.736-328.49Z"/><path d="M355 13.546C166.358 13.546 13.433 167.763 13.433 358c0 190.236 152.925 344.453 341.567 344.453S696.567 548.236 696.567 358c0-190.237-152.925-344.454-341.567-344.454ZM15.67 358C15.67 169.009 167.592 15.802 355 15.802c187.407 0 339.33 153.207 339.33 342.198 0 188.99-151.923 342.198-339.33 342.198C167.593 700.198 15.67 546.99 15.67 358Z"/><path d="M355 0C158.939 0 0 160.282 0 358s158.939 358 355 358 355-160.282 355-358S551.061 0 355 0ZM2.042 358C2.042 161.419 160.067 2.06 355 2.06c194.933 0 352.958 159.359 352.958 355.94S549.933 713.941 355 713.941C160.067 713.941 2.042 554.581 2.042 358Z"/></g></svg>

<svg width="710" height="716" viewBox="0 0 710 716" fill="none" xmlns="http://www.w3.org/2000/svg">
    <g opacity="0.81">
        <path fill-rule="evenodd" clip-rule="evenodd"
              d="M284.033 340.886C274.682 380.408 298.872 420.091 338.062 429.521C377.253 438.951 416.604 414.557 425.955 375.035C435.306 335.513 411.116 295.83 371.925 286.4C332.735 276.97 293.384 301.364 284.033 340.886ZM339.417 423.798C303.361 415.122 281.105 378.612 289.709 342.252C298.312 305.891 334.515 283.448 370.571 292.123C406.627 300.799 428.882 337.309 420.279 373.669C411.676 410.03 375.473 432.473 339.417 423.798Z"
              fill="#80FF9F" fill-opacity="0.3"/>
        <path fill-rule="evenodd" clip-rule="evenodd"
              d="M268.605 358.001C268.605 309.883 307.285 270.875 355 270.875C402.715 270.875 441.396 309.883 441.396 358.001C441.396 406.119 402.715 445.126 355 445.126C307.285 445.126 268.605 406.119 268.605 358.001ZM355 276.583C310.411 276.583 274.264 313.035 274.264 358.001C274.264 402.967 310.411 439.419 355 439.419C399.589 439.419 435.736 402.967 435.736 358.001C435.736 313.035 399.589 276.583 355 276.583Z"
              fill="#80FF9F" fill-opacity="0.3"/>
        <path fill-rule="evenodd" clip-rule="evenodd"
              d="M355 257.329C299.866 257.329 255.172 302.401 255.172 358.001C255.172 413.601 299.866 458.673 355 458.673C410.134 458.673 454.828 413.601 454.828 358.001C454.828 302.401 410.134 257.329 355 257.329ZM260.637 358.001C260.637 305.445 302.885 262.841 355 262.841C407.115 262.841 449.363 305.445 449.363 358.001C449.363 410.557 407.115 453.161 355 453.161C302.885 453.161 260.637 410.557 260.637 358.001Z"
              fill="#80FF9F" fill-opacity="0.3"/>
        <path fill-rule="evenodd" clip-rule="evenodd"
              d="M241.753 358C241.753 294.927 292.455 243.796 355 243.796C417.545 243.796 468.247 294.927 468.247 358C468.247 421.074 417.545 472.205 355 472.205C292.455 472.205 241.753 421.074 241.753 358ZM355 249.131C295.377 249.131 247.043 297.873 247.043 358C247.043 418.127 295.377 466.87 355 466.87C414.623 466.87 462.957 418.127 462.957 358C462.957 297.873 414.623 249.131 355 249.131Z"
              fill="#80FF9F" fill-opacity="0.3"/>
        <path fill-rule="evenodd" clip-rule="evenodd"
              d="M355 230.24C285.031 230.24 228.31 287.441 228.31 358.001C228.31 428.561 285.031 485.761 355 485.761C424.969 485.761 481.69 428.561 481.69 358.001C481.69 287.441 424.969 230.24 355 230.24ZM233.425 358.001C233.425 290.29 287.856 235.399 355 235.399C422.144 235.399 476.575 290.29 476.575 358.001C476.575 425.712 422.144 480.603 355 480.603C287.856 480.603 233.425 425.712 233.425 358.001Z"
              fill="#80FF9F" fill-opacity="0.3"/>
        <path fill-rule="evenodd" clip-rule="evenodd"
              d="M214.891 358C214.891 279.966 277.62 216.707 355 216.707C432.38 216.707 495.109 279.966 495.109 358C495.109 436.034 432.38 499.293 355 499.293C277.62 499.293 214.891 436.034 214.891 358ZM355 221.689C280.348 221.689 219.831 282.717 219.831 358C219.831 433.282 280.348 494.311 355 494.311C429.652 494.311 490.169 433.282 490.169 358C490.169 282.717 429.652 221.689 355 221.689Z"
              fill="#80FF9F" fill-opacity="0.3"/>
        <path fill-rule="evenodd" clip-rule="evenodd"
              d="M355 203.161C270.201 203.161 201.458 272.485 201.458 358C201.458 443.516 270.201 512.84 355 512.84C439.799 512.84 508.542 443.516 508.542 358C508.542 272.485 439.799 203.161 355 203.161ZM206.204 358C206.204 275.128 272.822 207.947 355 207.947C437.178 207.947 503.796 275.128 503.796 358C503.796 440.873 437.178 508.054 355 508.054C272.822 508.054 206.204 440.873 206.204 358Z"
              fill="#80FF9F" fill-opacity="0.3"/>
        <path fill-rule="evenodd" clip-rule="evenodd"
              d="M188.016 358.001C188.016 264.999 262.777 189.606 355 189.606C447.223 189.606 521.984 264.999 521.984 358.001C521.984 451.003 447.223 526.397 355 526.397C262.777 526.397 188.016 451.003 188.016 358.001ZM355 194.215C265.301 194.215 192.586 267.545 192.586 358.001C192.586 448.458 265.301 521.787 355 521.787C444.699 521.787 517.414 448.458 517.414 358.001C517.414 267.545 444.699 194.215 355 194.215Z"
              fill="#80FF9F" fill-opacity="0.3"/>
        <path fill-rule="evenodd" clip-rule="evenodd"
              d="M355 176.072C255.366 176.072 174.596 257.524 174.596 358C174.596 458.476 255.366 539.928 355 539.928C454.634 539.928 535.403 458.476 535.403 358C535.403 257.524 454.634 176.072 355 176.072ZM178.992 358C178.992 259.972 257.793 180.505 355 180.505C452.206 180.505 531.008 259.972 531.008 358C531.008 456.028 452.206 535.495 355 535.495C257.793 535.495 178.992 456.028 178.992 358Z"
              fill="#80FF9F" fill-opacity="0.3"/>
        <path fill-rule="evenodd" clip-rule="evenodd"
              d="M346.603 552.169C239.545 547.851 156.229 456.829 160.511 348.866C164.793 240.903 255.052 156.883 362.111 161.201C469.169 165.52 552.485 256.542 548.203 364.505C543.92 472.467 453.661 556.488 346.603 552.169ZM164.731 349.036C160.542 454.648 242.045 543.689 346.772 547.913C451.499 552.138 539.793 469.947 543.982 364.334C548.171 258.722 466.669 169.682 361.942 165.457C257.215 161.233 168.92 243.424 164.731 349.036Z"
              fill="#80FF9F" fill-opacity="0.3"/>
        <path fill-rule="evenodd" clip-rule="evenodd"
              d="M355 148.993C240.536 148.993 147.745 242.569 147.745 358C147.745 473.431 240.536 567.007 355 567.007C469.464 567.007 562.255 473.431 562.255 358C562.255 242.569 469.464 148.993 355 148.993ZM151.771 358C151.771 244.811 242.76 153.053 355 153.053C467.24 153.053 558.229 244.811 558.229 358C558.229 471.189 467.24 562.947 355 562.947C242.76 562.947 151.771 471.189 151.771 358Z"
              fill="#80FF9F" fill-opacity="0.3"/>
        <path fill-rule="evenodd" clip-rule="evenodd"
              d="M134.302 358C134.302 235.082 233.112 135.438 355 135.438C476.888 135.438 575.698 235.082 575.698 358C575.698 480.918 476.888 580.563 355 580.563C233.112 580.563 134.302 480.918 134.302 358ZM355 139.321C235.239 139.321 138.153 237.227 138.153 358C138.153 478.774 235.239 576.68 355 576.68C474.761 576.68 571.847 478.774 571.847 358C571.847 237.227 474.761 139.321 355 139.321Z"
              fill="#80FF9F" fill-opacity="0.3"/>
        <path fill-rule="evenodd" clip-rule="evenodd"
              d="M355 121.882C225.688 121.882 120.86 227.596 120.86 358.001C120.86 488.406 225.688 594.12 355 594.12C484.312 594.12 589.14 488.406 589.14 358.001C589.14 227.596 484.312 121.882 355 121.882ZM124.536 358.001C124.536 229.643 227.718 125.589 355 125.589C482.282 125.589 585.464 229.643 585.464 358.001C585.464 486.359 482.282 590.413 355 590.413C227.718 590.413 124.536 486.359 124.536 358.001Z"
              fill="#80FF9F" fill-opacity="0.3"/>
        <path fill-rule="evenodd" clip-rule="evenodd"
              d="M107.451 358C107.451 220.127 218.282 108.359 355 108.359C491.718 108.359 602.55 220.127 602.55 358C602.55 495.874 491.718 607.642 355 607.642C218.282 607.642 107.451 495.874 107.451 358ZM355 111.87C220.205 111.87 110.932 222.066 110.932 358C110.932 493.935 220.205 604.131 355 604.131C489.795 604.131 599.068 493.935 599.068 358C599.068 222.066 489.795 111.87 355 111.87Z"
              fill="#80FF9F" fill-opacity="0.3"/>
        <path fill-rule="evenodd" clip-rule="evenodd"
              d="M355 94.8029C210.858 94.8029 94.0077 212.641 94.0077 358.001C94.0077 503.361 210.858 621.198 355 621.198C499.142 621.198 615.992 503.361 615.992 358.001C615.992 212.641 499.142 94.8029 355 94.8029ZM97.3141 358.001C97.3141 214.482 212.684 98.1372 355 98.1372C497.316 98.1372 612.686 214.482 612.686 358.001C612.686 501.519 497.316 617.864 355 617.864C212.684 617.864 97.3141 501.519 97.3141 358.001Z"
              fill="#80FF9F" fill-opacity="0.3"/>
        <path fill-rule="evenodd" clip-rule="evenodd"
              d="M80.5888 358C80.5888 205.166 203.447 81.2697 355 81.2697C506.553 81.2697 629.411 205.166 629.411 358C629.411 510.834 506.553 634.73 355 634.73C203.447 634.73 80.5888 510.834 80.5888 358ZM355 84.4275C205.176 84.4275 83.7201 206.91 83.7201 358C83.7201 509.09 205.176 631.572 355 631.572C504.824 631.572 626.28 509.09 626.28 358C626.28 206.91 504.824 84.4275 355 84.4275Z"
              fill="#80FF9F" fill-opacity="0.3"/>
        <path fill-rule="evenodd" clip-rule="evenodd"
              d="M355 67.7142C196.023 67.7142 67.1463 197.68 67.1463 358.001C67.1463 518.321 196.023 648.287 355 648.287C513.977 648.287 642.854 518.321 642.854 358.001C642.854 197.68 513.977 67.7142 355 67.7142ZM70.1026 358.001C70.1026 199.326 197.656 70.6955 355 70.6955C512.344 70.6955 639.897 199.326 639.897 358.001C639.897 516.675 512.344 645.305 355 645.305C197.656 645.305 70.1026 516.675 70.1026 358.001Z"
              fill="#80FF9F" fill-opacity="0.3"/>
        <path fill-rule="evenodd" clip-rule="evenodd"
              d="M53.7134 358.001C53.7134 190.199 188.604 54.1682 355 54.1682C521.396 54.1682 656.287 190.199 656.287 358.001C656.287 525.803 521.396 661.834 355 661.834C188.604 661.834 53.7134 525.803 53.7134 358.001ZM355 56.9533C190.129 56.9533 56.4752 191.737 56.4752 358.001C56.4752 524.265 190.129 659.048 355 659.048C519.871 659.048 653.525 524.265 653.525 358.001C653.525 191.737 519.871 56.9533 355 56.9533Z"
              fill="#80FF9F" fill-opacity="0.3"/>
        <path fill-rule="evenodd" clip-rule="evenodd"
              d="M355 40.635C181.193 40.635 40.2946 182.724 40.2946 358C40.2946 533.276 181.193 675.365 355 675.365C528.807 675.365 669.706 533.276 669.706 358C669.706 182.724 528.807 40.635 355 40.635ZM42.8814 358C42.8814 184.165 182.622 43.2437 355 43.2437C527.379 43.2437 667.119 184.165 667.119 358C667.119 531.835 527.379 672.757 355 672.757C182.622 672.757 42.8814 531.835 42.8814 358Z"
              fill="#80FF9F" fill-opacity="0.3"/>
        <path fill-rule="evenodd" clip-rule="evenodd"
              d="M26.8517 358.001C26.8517 175.238 173.769 27.0796 355 27.0796C536.231 27.0796 683.148 175.238 683.148 358.001C683.148 540.764 536.231 688.922 355 688.922C173.769 688.922 26.8517 540.764 26.8517 358.001ZM355 29.5117C175.101 29.5117 29.2634 176.581 29.2634 358.001C29.2634 539.42 175.101 686.49 355 686.49C534.899 686.49 680.736 539.42 680.736 358.001C680.736 176.581 534.899 29.5117 355 29.5117Z"
              fill="#80FF9F" fill-opacity="0.3"/>
        <path fill-rule="evenodd" clip-rule="evenodd"
              d="M355 13.546C166.358 13.546 13.4328 167.763 13.4328 358C13.4328 548.236 166.358 702.453 355 702.453C543.642 702.453 696.567 548.236 696.567 358C696.567 167.763 543.642 13.546 355 13.546ZM15.6695 358C15.6695 169.009 167.593 15.8016 355 15.8016C542.407 15.8016 694.33 169.009 694.33 358C694.33 546.99 542.407 700.198 355 700.198C167.593 700.198 15.6695 546.99 15.6695 358Z"
              fill="#80FF9F" fill-opacity="0.3"/>
        <path fill-rule="evenodd" clip-rule="evenodd"
              d="M355 0C158.939 0 0 160.282 0 358C0 555.718 158.939 716 355 716C551.061 716 710 555.718 710 358C710 160.282 551.061 0 355 0ZM2.04219 358C2.04219 161.419 160.067 2.05945 355 2.05945C549.933 2.05945 707.958 161.419 707.958 358C707.958 554.581 549.933 713.941 355 713.941C160.067 713.941 2.04219 554.581 2.04219 358Z"
              fill="#80FF9F" fill-opacity="0.3"/>
    </g>
</svg>
